X:1
T:Ballydesmond Polka #1
R:Polka
M:2/4
S:Julia Clifford, Denis Murphy
K:Ador
A>b AG | EF GE | A>B AG | Ad d/e/d/c/ |
A>b AG | EF G2 | AB CE | ED D2 :|
|: ed d2 | ed cd | ed ^cd | ea a/b/a/g/ |
[|1 ed d2 | ed cd | ab cd | ed g2 |]
[|2 e/f/g dA | ce d2 | AB cE | ED D2 |]

